src/main/resources/icons/function.svg

<?xml version="1.0" encoding="UTF-8" standalone="no"?>
<svg
   xmlns="http://www.w3.org/2000/svg"
   version="1.1"
   viewBox="0 0 16 16"
   height="16"
   width="16">
  <defs
     id="defs12" />
  <path
     d="m 15,8 c 0,3.866 -3.134,7 -7,7 C 4.134,15 1,11.866 1,8 1,4.134 4.134,1 8,1 c 3.866,0 7,3.134 7,7"
     id="path2"
     style="fill:#ff3aff;fill-opacity:0.6;fill-rule:evenodd"/>
  <g
     id="text16">
    <path
       d="M 9.6246744,4.4544276 V 5.1516932 H 8.8225911 q -0.4511719,0 -0.6289063,0.1822917 -0.1731771,0.1822917 -0.1731771,0.65625 V 6.4414067 H 9.4013671 V 7.0930994 H 8.0205077 V 11.545573 H 7.1774088 V 7.0930994 H 6.3753255 V 6.4414067 H 7.1774088 V 6.085938 q 0,-0.8522135 0.3964844,-1.2395833 0.3964843,-0.3919271 1.2578124,-0.3919271 z"
       style="fill:#221e20;fill-opacity:0.69803922;stroke:none"
       id="path819"/>
  </g>
</svg>

<svg xmlns="http://www.w3.org/2000/svg" height="16" width="16">
    <path d="M15 8A7 7 0 111 8a7 7 0 0114 0" fill="#ff3aff" fill-opacity=".6" fill-rule="evenodd"/>
    <path d="M9.625 4.454v.698h-.802q-.452 0-.63.182-.172.182-.172.656v.451H9.4v.652h-1.38v4.453h-.844V7.093h-.802v-.652h.802v-.355q0-.852.397-1.24.396-.392 1.258-.392z"
          fill="#221e20" fill-opacity=".698"/>
</svg>
